X:136
T:Mountain Lark (reel), The   
B:CRE1.084 (Fuiseog an tSleibhe)
F:file ID: cre.1/136mount_L
S:Willie Clancy
M:C
L:1/8
Q:180
R:reel
K:G
dc|:BGG2 ADD2|BGG2 Addc|(3ABA GB AGFD|F3G ABcA:|
dgg2 bgg2|dgge fdcA|dgg2 bgg2|d^cde fd=cA|
G2g2 bgg2|abag fd (3efg|af (3gfe fde^c|dgbg fdcA||

%%%

